public/assets/images/plant-line.svg

<svg xmlns="http://www.w3.org/2000/svg" viewBox="0 0 24 24" fill="rgba(0,0,0,0.7)"><path d="M5.99805 2C8.68733 2 11.0224 3.51653 12.1947 5.74104C13.372 4.08252 15.3086 3 17.498 3H20.998V5.5C20.998 9.08985 18.0879 12 14.498 12H12.998V13H17.998V20C17.998 21.1046 17.1026 22 15.998 22H7.99805C6.89348 22 5.99805 21.1046 5.99805 20V13H10.998V11H8.99805C5.13205 11 1.99805 7.86599 1.99805 4V2H5.99805ZM15.998 15H7.99805V20H15.998V15ZM18.998 5H17.498C15.0128 5 12.998 7.01472 12.998 9.5V10H14.498C16.9833 10 18.998 7.98528 18.998 5.5V5ZM5.99805 4H3.99805C3.99805 6.76142 6.23662 9 8.99805 9H10.998C10.998 6.23858 8.75947 4 5.99805 4Z"></path></svg>

<svg fill="rgba(0,0,0,0.7)" viewBox="0 0 24 24"><path d="M5.998 2a7 7 0 0 1 6.197 3.741A6.49 6.49 0 0 1 17.498 3h3.5v2.5a6.5 6.5 0 0 1-6.5 6.5h-1.5v1h5v7a2 2 0 0 1-2 2h-8a2 2 0 0 1-2-2v-7h5v-2h-2a7 7 0 0 1-7-7V2zm10 13h-8v5h8zm3-10h-1.5a4.5 4.5 0 0 0-4.5 4.5v.5h1.5a4.5 4.5 0 0 0 4.5-4.5zm-13-1h-2a5 5 0 0 0 5 5h2a5 5 0 0 0-5-5"/></svg>
